src/lib/packages/icons/src/assets/line/globe.svg

<svg width="24" height="24" viewBox="0 0 24 24" fill="none" xmlns="http://www.w3.org/2000/svg">
<path d="M12 1.25C6.072 1.25 1.25 6.073 1.25 12C1.25 17.927 6.072 22.75 12 22.75C17.928 22.75 22.75 17.927 22.75 12C22.75 6.073 17.928 1.25 12 1.25ZM21.212 11.25H17.162C17.031 8.507 16.187 5.71201 14.727 3.16101C18.27 4.25701 20.903 7.43 21.212 11.25ZM12.73 2.78699C14.486 5.39799 15.509 8.36 15.662 11.25H8.33801C8.49001 8.36 9.51399 5.39799 11.27 2.78699C11.512 2.76799 11.754 2.75 12 2.75C12.246 2.75 12.489 2.76799 12.73 2.78699ZM9.27301 3.16101C7.81301 5.71201 6.96901 8.507 6.83801 11.25H2.78799C3.09699 7.43 5.73001 4.25701 9.27301 3.16101ZM2.78799 12.75H6.83801C6.96901 15.493 7.81301 18.288 9.27301 20.839C5.73001 19.743 3.09699 16.57 2.78799 12.75ZM11.27 21.213C9.51399 18.602 8.49101 15.64 8.33801 12.75H15.662C15.51 15.64 14.486 18.602 12.73 21.213C12.488 21.232 12.246 21.25 12 21.25C11.754 21.25 11.511 21.232 11.27 21.213ZM14.727 20.839C16.187 18.288 17.031 15.493 17.162 12.75H21.212C20.903 16.57 18.27 19.743 14.727 20.839Z" fill="currentColor"/>
</svg>

<svg xmlns="http://www.w3.org/2000/svg" width="24" height="24" fill="none"><path fill="currentColor" d="M12 1.25C6.072 1.25 1.25 6.073 1.25 12S6.072 22.75 12 22.75 22.75 17.927 22.75 12 17.928 1.25 12 1.25Zm9.212 10h-4.05c-.131-2.743-.975-5.538-2.435-8.089a9.268 9.268 0 0 1 6.485 8.089ZM12.73 2.787c1.756 2.611 2.779 5.573 2.932 8.463H8.338c.152-2.89 1.176-5.852 2.932-8.463A9.29 9.29 0 0 1 12 2.75c.246 0 .489.018.73.037Zm-3.457.374c-1.46 2.551-2.304 5.346-2.435 8.089h-4.05a9.268 9.268 0 0 1 6.485-8.089ZM2.788 12.75h4.05c.131 2.743.975 5.538 2.435 8.089a9.268 9.268 0 0 1-6.485-8.089Zm8.482 8.463c-1.756-2.611-2.779-5.573-2.932-8.463h7.324c-.152 2.89-1.176 5.852-2.932 8.463a9.29 9.29 0 0 1-.73.037c-.246 0-.489-.018-.73-.037Zm3.457-.374c1.46-2.551 2.304-5.346 2.435-8.089h4.05a9.268 9.268 0 0 1-6.485 8.089Z"/></svg>
